src/copy/assets/deco-left.svg

<svg xmlns="http://www.w3.org/2000/svg" xmlns:xlink="http://www.w3.org/1999/xlink" width="22" height="48" viewBox="0 0 22 48">
  <defs>
    <polygon id="deco-left-a" points="0 47 24.441 46.356 25 0 0 0"/>
  </defs>
  <g fill="none" fill-rule="evenodd">
    <path fill="#472921" d="M0.00388984222,23 L20,23 C19.9450656,23.006192 19.8901313,23.0123839 19.8351969,23.0185759 C15.8914875,23.495356 11.6181719,24.2631579 7.99539483,26.0526316 C7.54435475,26.2755418 7.09909723,26.5263158 6.73768692,26.8885449 C6.35603762,27.2724458 5.96860576,27.8823529 5.83271548,28.4365325 C5.6968252,28.9659443 5.80380265,29.5603715 6.11316988,30 C4.94509173,29.8854489 3.87820847,28.9628483 3.525472,27.7616099 C3.20453963,26.6749226 3.52836328,25.6563467 4.0545767,24.7306502 C3.259474,24.7739938 2.56845747,25.3034056 1.71263783,25.2136223 C0.80477511,25.123839 -0.0655009391,23.9690402 0.00388984222,23"/>
    <path fill="#472921" d="M21,23 L20.6856823,23.0540315 C16.4103507,23.8254806 12.1106061,25.6865642 8.81789895,28.4871948 C6.31861519,30.6154339 4.45407017,33.3800436 3.59656255,36.5318787 C3.07168245,38.4469937 2.91910102,40.4431559 3.03811453,42.4183059 C3.09304385,43.3188302 3.64844024,49.3133204 5.613689,47.7374028 C5.93411,47.4792525 5.99209094,47.0019747 5.87307743,46.6117475 C5.75406391,46.2215203 5.49467549,45.8883263 5.26580335,45.5491288 C3.97191286,43.619005 3.59045929,41.1215509 4.25266268,38.9062611 C4.36557294,38.5340444 4.62801299,38.0927875 5.01556981,38.1678312 C5.20171915,38.1978486 5.34209406,38.3539395 5.45195269,38.5100304 C5.73880577,38.9212698 5.91580023,39.3985477 6.21180819,39.8007819 C6.51391942,40.2000144 6.99912835,40.5332084 7.4965438,40.4401542 C8.0427853,40.3320913 8.37541281,39.7527539 8.39677421,39.2064359 C8.41813561,38.6631195 8.21062487,38.1378137 8.0427853,37.6155096 C7.453821,35.77844 7.13340001,32.9417884 8.08245648,31.1437415 C8.93691246,29.5227978 10.9845552,27.7967928 12.4859564,26.7371759 C13.7157627,25.8696708 15.1012021,25.2423055 16.4988479,24.6719735 C17.829358,24.1286571 19.1781778,23.6333688 20.548359,23.1861084 L21,23 Z"/>
    <path fill="#472921" d="M20,25 C19.9450656,24.9938108 19.8901313,24.984527 19.8351969,24.9783378 C15.8914875,24.5017683 11.6181719,23.7343059 7.99539483,21.9487179 C7.54435475,21.7228117 7.09909723,21.4721485 6.73768692,21.1100796 C6.35603762,20.729443 5.96860576,20.1167109 5.83271548,19.5627763 C5.6968252,19.0335986 5.80380265,18.4394341 6.11316988,18 C4.94509173,18.117595 3.87820847,19.0366932 3.525472,20.2374005 C3.20453963,21.326702 3.52836328,22.3448276 4.0545767,23.2670203 C3.259474,23.2236958 2.56845747,22.6945181 1.71263783,22.7842617 C0.80477511,22.8770999 -0.0655009391,24.0282935 0.00388984222,25 L20,25 Z"/>
    <path fill="#472921" d="M17.3697143,24.8285873 C17.2704127,24.8139889 17.1711111,24.7964707 17.0688889,24.7760329 C12.9770794,24.0256722 8.86190476,22.2154635 5.71053968,19.4913913 C3.31853968,17.4213301 1.53403175,14.7352139 0.713333333,11.6695379 C0.210984127,9.80385504 0.064952381,7.86226021 0.178857143,5.94110322 C0.231428571,5.06519578 0.762984127,-0.765428085 2.64387302,0.767409936 C2.95053968,1.0185034 3.00603175,1.48273435 2.89212698,1.86229424 C2.77822222,2.24477382 2.52996825,2.56593988 2.31092063,2.89586502 C1.07257143,4.77322663 0.707492063,7.20240994 1.34126984,9.36006193 C1.44933333,9.71918398 1.70050794,10.1483786 2.07142857,10.078306 C2.2495873,10.0461894 2.38393651,9.89436547 2.48907937,9.74254152 C2.76361905,9.34254378 2.93301587,8.87831284 3.21631746,8.48707418 C3.50546032,8.09875522 3.96984127,7.77466946 4.44590476,7.86809959 C4.96869841,7.97028879 5.28704762,8.53378925 5.30749206,9.06809279 C5.32793651,9.59655694 5.12933333,10.1045833 4.96869841,10.6126096 C4.40501587,12.4023804 4.09834921,15.1614889 5.00666667,16.9074644 C5.82444444,18.4840978 7.78419048,20.1658401 9.22114286,21.1935715 C10.3981587,22.0373623 11.724127,22.6504975 13.0617778,23.2023192 C14.3351746,23.733703 15.6260952,24.2125324 16.9374603,24.6475665 L17.3697143,24.8285873 Z" transform="translate(4)"/>
    <path fill="#472921" d="M16.4164038,23.5182854 L16,24.0017967 L16.4164038,24.4809125 C16.4164038,24.4809125 17.8461538,24.177619 18.8886193,24.4809125 C19.6981315,24.7204704 20.6736229,25.3226619 21.5326377,24.7798105 C22.1557874,24.3886058 22.1557874,23.6127898 21.5326377,23.2193874 C20.6736229,22.676536 19.6981315,23.283123 18.8886193,23.5182854 C17.8461538,23.8237766 16.4164038,23.5182854 16.4164038,23.5182854 Z"/>
  </g>
</svg>

<svg xmlns="http://www.w3.org/2000/svg" width="22" height="48"><defs><path d="M0 47l24.441-.644L25 0H0z"/></defs><g fill="#5D5246" fill-rule="evenodd"><path d="M.004 23H20l-.165.019c-3.944.476-8.217 1.244-11.84 3.034-.45.223-.896.473-1.257.836-.382.383-.77.993-.905 1.548A1.937 1.937 0 006.113 30c-1.168-.115-2.235-1.037-2.588-2.238-.32-1.087.003-2.106.53-3.031-.796.043-1.487.572-2.342.483C.805 25.124-.066 23.969.003 23"/><path d="M21 23l-.314.054c-4.276.771-8.575 2.633-11.868 5.433-2.5 2.128-4.364 4.893-5.221 8.045-.525 1.915-.678 3.911-.559 5.886.055.9.61 6.895 2.576 5.32.32-.259.378-.736.26-1.126-.12-.39-.38-.724-.608-1.063-1.294-1.93-1.676-4.427-1.013-6.643.113-.372.375-.813.763-.738.186.03.326.186.436.342.287.411.464.889.76 1.29.302.4.787.733 1.285.64.546-.108.878-.687.9-1.234.021-.543-.186-1.068-.354-1.59-.59-1.838-.91-4.674.04-6.472.854-1.621 2.902-3.347 4.403-4.407 1.23-.867 2.615-1.495 4.013-2.065a59.746 59.746 0 014.05-1.486L21 23z"/><path d="M20 25c-.055-.006-.11-.015-.165-.022-3.944-.476-8.217-1.244-11.84-3.03-.45-.225-.896-.476-1.257-.838-.382-.38-.77-.993-.905-1.547A1.936 1.936 0 016.113 18c-1.168.118-2.235 1.037-2.588 2.237-.32 1.09.003 2.108.53 3.03-.796-.043-1.487-.572-2.342-.483C.805 22.877-.066 24.028.003 25H20z"/><path d="M21.37 24.829a5.922 5.922 0 01-.301-.053c-4.092-.75-8.207-2.56-11.358-5.285-2.392-2.07-4.177-4.756-4.998-7.821-.502-1.866-.648-3.808-.534-5.729.052-.876.584-6.706 2.465-5.174.307.252.362.716.248 1.095-.114.383-.362.704-.581 1.034a7.878 7.878 0 00-.97 6.464c.108.36.36.788.73.718.179-.032.313-.184.418-.335.275-.4.444-.865.727-1.256.29-.388.754-.712 1.23-.619.523.102.841.666.861 1.2.02.529-.178 1.037-.338 1.545-.564 1.79-.87 4.548.038 6.294.817 1.577 2.777 3.259 4.214 4.287 1.177.843 2.503 1.456 3.84 2.008a55.1 55.1 0 003.876 1.446l.433.18z"/><path d="M16.416 23.518l-.416.484.416.479s1.43-.303 2.473 0c.81.24 1.785.842 2.644.299.623-.391.623-1.167 0-1.56-.86-.543-1.835.063-2.644.298-1.043.306-2.473 0-2.473 0z"/></g></svg>
